packages/icons/general/Send.svg

<svg xmlns="http://www.w3.org/2000/svg" width="18" height="18" viewBox="0 0 18 18">
    <path fill="currentColor" fill-rule="evenodd" d="M16.3449 3.38244L2.42483 7.92639L5.82181 9.95786C6.04825 10.0933 6.18688 10.3377 6.18688 10.6015V12.8779L8.48652 11.9452C8.69775 11.8595 8.93648 11.8746 9.13529 11.9861L14.3428 14.9067L16.3449 3.38244ZM16.6836 2.00958C17.221 1.83413 17.752 2.29389 17.6552 2.85093L15.4163 15.7386C15.3277 16.2484 14.7618 16.5175 14.3105 16.2644L8.73702 13.1385L6.01877 14.241C5.52564 14.441 4.98688 14.0782 4.98688 13.546V10.8568L0.960663 8.449C0.40841 8.11874 0.501143 7.29202 1.11286 7.09234L16.6836 2.00958ZM14.1798 5.65582C14.3971 5.90598 14.3705 6.28494 14.1203 6.50226L9.88582 10.1807C9.63565 10.398 9.25669 10.3714 9.03938 10.1213C8.82206 9.87109 8.84869 9.49213 9.09886 9.27482L13.3334 5.59634C13.5835 5.37902 13.9625 5.40565 14.1798 5.65582Z" clip-rule="evenodd"/>
</svg>

<svg xmlns="http://www.w3.org/2000/svg" width="18" height="18">
    <path fill="currentColor" fill-rule="evenodd" d="M16.345 3.382 2.425 7.926l3.397 2.032a.75.75 0 0 1 .365.643v2.277l2.3-.933a.75.75 0 0 1 .648.041l5.208 2.92 2.002-11.524Zm.339-1.372a.75.75 0 0 1 .971.84l-2.239 12.89a.75.75 0 0 1-1.106.525L8.737 13.14l-2.718 1.1a.75.75 0 0 1-1.032-.695v-2.69L.96 8.45a.75.75 0 0 1 .152-1.357l15.57-5.082ZM14.18 5.656a.6.6 0 0 1-.06.846l-4.234 3.679a.6.6 0 0 1-.787-.906l4.234-3.679a.6.6 0 0 1 .847.06Z" clip-rule="evenodd"/>
</svg>
